Yaru++/actions/16/playlist_display-add-files.svg

<svg height="16" width="16" xmlns="http://www.w3.org/2000/svg">
  <g fill="#808080">
    <path d="m11.527726.50527786c-.485058-.0565715-.552225.35293975-.501697.67875094-.0043 3.2421262.0096 6.4872204-.0064 9.7274832-.118468.111525-.345815-.07189-.496758-.02432-1.6443346-.09032-3.4409196.98398-3.6053086 2.534329-.193736 1.232627 1.251784 2.24681 2.540811 2.055099 1.6242766-.155325 2.8932576-1.632238 2.6814886-3.090251.0043-2.5671147-.0096-5.1372184.0064-7.7024795.110711-.1142466.27585.1290002.392486.1409252 1.306181.6963439 2.461611 1.8446384 2.539611 3.2746336.08571 1.1173945-.289747 2.2107787-.712244 3.2466587 1.415693-1.5701191 1.868886-3.8606116.885142-5.715161-.503122-1.0765301-1.638088-1.7399597-2.273018-2.7398826-.46889-.6682081-.82574-1.4141806-.937394-2.20305313-.091929-.16449667-.334061-.18453241-.513119-.18276455z"/>
    <path d="m2 10v2h-2v1h2v2h1v-2h2v-1h-2v-2z"/>
  </g>
</svg>

<svg xmlns="http://www.w3.org/2000/svg" width="16" height="16" version="1.1">
 <path style="fill:#808080" d="m 11.527726,0.50527786 c -0.485058,-0.0565715 -0.552225,0.35293975 -0.501697,0.67875094 -0.0043,3.2421262 0.0096,6.4872204 -0.0064,9.7274832 -0.118468,0.111525 -0.345815,-0.07189 -0.496758,-0.02432 -1.6443346,-0.09032 -3.4409196,0.98398 -3.6053086,2.534329 -0.193736,1.232627 1.251784,2.24681 2.540811,2.055099 1.6242766,-0.155325 2.8932576,-1.632238 2.6814886,-3.090251 0.0043,-2.5671147 -0.0096,-5.1372184 0.0064,-7.7024795 0.110711,-0.1142466 0.27585,0.1290002 0.392486,0.1409252 1.306181,0.6963439 2.461611,1.8446384 2.539611,3.2746336 0.08571,1.1173945 -0.289747,2.2107787 -0.712244,3.2466587 C 15.781808,9.7759879 16.235001,7.4854954 15.251257,5.630946 14.748135,4.5544159 13.613169,3.8909863 12.978239,2.8910634 12.509349,2.2228553 12.152499,1.4768828 12.040845,0.68801027 11.948916,0.5235136 11.706784,0.50347786 11.527726,0.50524572 z"/>
 <path style="fill:#808080" d="m 2,10 v 2 H 0 v 1 h 2 v 2 H 3 V 13 H 5 V 12 H 3 v -2 z"/>
</svg>
